assets/Person elf/Medium-Light/Flat/person_elf_flat_medium-light.svg

<svg width="32" height="32" viewBox="0 0 32 32" fill="none" xmlns="http://www.w3.org/2000/svg">
<path d="M10.15 10.8799H12.78L12.11 15.4799L12.1 15.4699C11.99 16.7599 10.88 17.7599 9.54001 17.7099C8.27001 17.6499 7.24001 16.6399 7.17001 15.3799C7.12001 14.5599 7.47001 13.8199 8.05001 13.3399H8.06001C8.06501 13.3399 8.06751 13.3374 8.07001 13.3349C8.07251 13.3324 8.07501 13.3299 8.08001 13.3299L8.46001 13.0199C9.05001 12.5399 9.55001 11.9499 9.93001 11.2799L10.15 10.8799Z" fill="#FFF9BA"/>
<path d="M22.7201 10.8799H20.1001L20.7601 15.4799L20.7701 15.4699C20.8801 16.7599 21.9901 17.7599 23.3301 17.7099C24.6001 17.6499 25.6301 16.6399 25.7001 15.3799C25.7501 14.5599 25.4001 13.8199 24.8201 13.3399H24.8101C24.8051 13.3399 24.8026 13.3374 24.8001 13.3349C24.7976 13.3324 24.7951 13.3299 24.7901 13.3299L24.4101 13.0199C23.8201 12.5399 23.3201 11.9499 22.9401 11.2799L22.7201 10.8799Z" fill="#FFF9BA"/>
<path d="M26.8503 29.9796L18.1638 24.6699L13.9802 16.2801C14.7764 16.0799 15.6006 15.97 16.4501 15.97C19.0701 15.97 21.5101 16.98 23.3401 18.68L23.3401 18.6699C24.6101 19.8499 25.5901 21.3599 26.1301 23.0899C26.6301 24.6899 26.8801 26.3699 26.8701 28.0499L26.8503 29.9796Z" fill="#44911B"/>
<path d="M16.55 29.9999L6 30V28.02C6 26.36 6.26 24.71 6.76 23.13L6.79 23.05C7.04659 22.2269 7.40793 21.4587 7.8502 20.7501L13.799 24.2758L16.55 29.9999Z" fill="#44911B"/>
<path d="M13.9801 16.28L26.8601 29.99V30L16.5501 30L7.8501 20.75C8.3201 19.99 8.8901 19.31 9.5301 18.71C10.7801 17.54 12.3001 16.7 13.9801 16.28Z" fill="#7D4533"/>
<path d="M16.4401 21.2599C20.0686 21.2599 23.0101 19.4467 23.0101 17.2099C23.0101 14.9732 20.0686 13.1599 16.4401 13.1599C12.8116 13.1599 9.87012 14.9732 9.87012 17.2099C9.87012 19.4467 12.8116 21.2599 16.4401 21.2599Z" fill="#A56953"/>
<path d="M16.8355 20.1925C16.6331 20.442 16.2513 20.4386 16.0533 20.1855L15.4506 19.4149C14.7245 18.4865 14.1392 17.4562 13.7134 16.3572L13.3 15.29H19.57L19.2916 16.0736C18.8351 17.3583 18.163 18.5558 17.3042 19.6146L16.8355 20.1925Z" fill="#E4B29A"/>
<path d="M16.4399 25.17C15.3599 24.09 15.3599 22.34 16.4399 21.26C17.5199 22.34 17.5199 24.09 16.4399 25.17Z" fill="#FFF9BA"/>
<path d="M20.4302 12.2099C19.8602 11.6399 19.8602 10.7099 20.4302 10.1399C21.0002 9.56989 23.9202 7.57989 24.4902 8.14989C25.0602 8.71989 23.0702 11.6399 22.5002 12.2099C21.9302 12.7799 21.0002 12.7799 20.4302 12.2099Z" fill="#E4B29A"/>
<path d="M12.4501 12.2099C13.0201 11.6399 13.0201 10.7099 12.4501 10.1399C11.8801 9.56995 8.96012 7.56995 8.39012 8.13995C7.82012 8.70995 9.81012 11.6299 10.3801 12.1999C10.9501 12.7799 11.8801 12.7799 12.4501 12.2099Z" fill="#E4B29A"/>
<path d="M17.57 3.38989H15.3C12.75 3.38989 10.83 5.51989 11.13 8.15989L11.51 14.0099C11.78 15.9999 13.47 17.4899 15.48 17.4899H16.45H17.42C19.43 17.4899 21.13 15.9999 21.39 14.0099L21.75 8.15989C22.08 5.63989 20.12 3.38989 17.57 3.38989Z" fill="#EEBFAA"/>
<path d="M16.0301 10.5599L15.5001 12.2899C15.3901 12.6399 15.6501 12.9999 16.0201 12.9999H16.8101C17.1801 12.9999 17.4501 12.6399 17.3401 12.2899L16.8101 10.5599C16.6901 10.1799 16.1501 10.1799 16.0301 10.5599Z" fill="#D19479"/>
<path d="M16.42 13.9799C15.87 13.9799 15.36 13.8499 14.92 13.6199C14.77 13.5399 14.62 13.7099 14.71 13.8499C15.07 14.4099 15.7 14.7799 16.42 14.7799C17.14 14.7799 17.77 14.4099 18.13 13.8499C18.22 13.7099 18.06 13.5399 17.92 13.6199C17.48 13.8499 16.97 13.9799 16.42 13.9799Z" fill="#990838"/>
<path d="M12.7188 8.71298C12.767 8.74721 12.8247 8.76543 12.8838 8.76508C12.945 8.76522 13.0046 8.74558 13.0538 8.70908C13.5018 8.41565 14.0391 8.28992 14.5708 8.35408C14.6083 8.35956 14.6465 8.35745 14.6831 8.34789C14.7198 8.33834 14.7541 8.32152 14.7842 8.29844C14.8142 8.27535 14.8393 8.24648 14.858 8.21352C14.8766 8.18056 14.8885 8.14419 14.8928 8.10657C14.8972 8.06894 14.8939 8.03082 14.8833 7.99447C14.8726 7.95813 14.8548 7.92429 14.8308 7.89496C14.8069 7.86563 14.7772 7.84141 14.7437 7.82374C14.7102 7.80607 14.6735 7.7953 14.6358 7.79208C13.9586 7.7063 13.2734 7.87251 12.7108 8.25908C12.6638 8.29498 12.6294 8.34473 12.6122 8.4013C12.5951 8.45787 12.5961 8.51839 12.6153 8.57431C12.6344 8.63024 12.6706 8.67875 12.7188 8.71298Z" fill="#A56953"/>
<path d="M19.7918 8.70902C19.8412 8.74583 19.9011 8.76581 19.9628 8.76602C20.0217 8.76582 20.0792 8.7472 20.1271 8.71277C20.1749 8.67833 20.2109 8.62979 20.2298 8.57394C20.2488 8.51809 20.2498 8.45771 20.2327 8.40125C20.2157 8.34479 20.1814 8.29506 20.1348 8.25902C19.5713 7.87526 18.8875 7.7093 18.2108 7.79202C18.1362 7.8008 18.0681 7.83877 18.0214 7.89761C17.9748 7.95646 17.9533 8.03139 17.9618 8.10602C17.9657 8.14308 17.977 8.17897 17.995 8.2116C18.0131 8.24422 18.0374 8.27293 18.0666 8.29602C18.0959 8.31912 18.1294 8.33615 18.1654 8.34611C18.2013 8.35607 18.2388 8.35876 18.2758 8.35402C18.8074 8.28536 19.3459 8.41146 19.7918 8.70902Z" fill="#A56953"/>
<path d="M12.55 10.5299C12.71 9.89994 13.27 9.43994 13.95 9.43994C14.65 9.43994 15.24 9.93994 15.37 10.5999C15.39 10.7499 15.28 10.8799 15.13 10.8799H12.83C12.64 10.8799 12.5 10.7099 12.55 10.5299Z" fill="white"/>
<path d="M20.2901 10.5299C20.1301 9.89994 19.5701 9.43994 18.8901 9.43994C18.1901 9.43994 17.6101 9.93994 17.4701 10.5999C17.4501 10.7499 17.5601 10.8799 17.7101 10.8799H20.0101C20.2001 10.8799 20.3301 10.7099 20.2901 10.5299Z" fill="white"/>
<path d="M13.24 10.64C13.24 10.13 13.65 9.71997 14.16 9.71997C14.67 9.71997 15.09 10.13 15.08 10.64C15.08 10.72 15.07 10.8 15.05 10.88H13.27C13.25 10.81 13.24 10.72 13.24 10.64Z" fill="#7D4533"/>
<path d="M19.6 10.64C19.6 10.13 19.19 9.71997 18.68 9.71997C18.17 9.71997 17.76 10.13 17.76 10.64C17.76 10.72 17.77 10.8 17.79 10.88H19.57C19.59 10.81 19.6 10.72 19.6 10.64Z" fill="#7D4533"/>
<path d="M14.1601 10.1099C14.4501 10.1099 14.6901 10.3499 14.6901 10.6399C14.6901 10.7299 14.6701 10.8099 14.6201 10.8799H13.6901C13.6501 10.8099 13.6301 10.7299 13.6301 10.6399C13.6301 10.3499 13.8701 10.1099 14.1601 10.1099Z" fill="black"/>
<path d="M18.6801 10.1099C18.3901 10.1099 18.1501 10.3499 18.1501 10.6399C18.1501 10.7299 18.1701 10.8099 18.2201 10.8799H19.1501C19.1901 10.8099 19.2101 10.7299 19.2101 10.6399C19.2101 10.3499 18.9701 10.1099 18.6801 10.1099Z" fill="black"/>
<path d="M14.0099 10.2799C14.0099 10.3682 13.9383 10.4399 13.8499 10.4399C13.7616 10.4399 13.6899 10.3682 13.6899 10.2799C13.6899 10.1915 13.7616 10.1199 13.8499 10.1199C13.9383 10.1199 14.0099 10.1915 14.0099 10.2799Z" fill="white"/>
<path d="M18.55 10.2799C18.55 10.3682 18.4783 10.4399 18.39 10.4399C18.3016 10.4399 18.23 10.3682 18.23 10.2799C18.23 10.1915 18.3016 10.1199 18.39 10.1199C18.4783 10.1199 18.55 10.1915 18.55 10.2799Z" fill="white"/>
<path d="M22.6301 8.06C23.1601 7.3 23.2301 6.27 22.7401 5.41C22.4301 4.87 21.9501 4.49 21.4001 4.31C20.8101 4.11 20.2901 3.72 19.9701 3.19C19.5301 2.48 18.7501 2 17.8601 2C17.5201 2 17.1901 2.07 16.8901 2.2C16.7401 2.26 16.5901 2.3 16.4401 2.32C16.2801 2.3 16.1301 2.26 15.9901 2.2C15.6901 2.07 15.3601 2 15.0201 2C14.1201 2 13.3401 2.48 12.9101 3.19C12.5801 3.72 12.0701 4.11 11.4701 4.31C10.9301 4.5 10.4401 4.87 10.1301 5.41C9.64007 6.27 9.72007 7.3 10.2401 8.06C10.3901 8.27 10.4801 8.52 10.5101 8.77C10.7501 8.91 10.9801 9.06 11.2001 9.21C11.2001 9.21 11.2001 9.21 11.2101 9.21L11.1601 8.25C11.1701 7.44 11.8201 6.78 12.6201 6.75H14.1001C15.1101 6.75 16.0201 6.16 16.4401 5.25C16.8601 6.16 17.7701 6.75 18.7801 6.75H20.2601C21.0701 6.79 21.7101 7.44 21.7201 8.25L21.6601 9.21C21.6601 9.21 21.6601 9.21 21.6701 9.21C21.8901 9.06 22.1201 8.91 22.3601 8.77C22.3901 8.51 22.4801 8.27 22.6301 8.06Z" fill="#FFF9BA"/>
<path d="M9.44913 5.70993C9.44913 5.44439 9.66439 5.22913 9.92993 5.22913H23.0299C23.2955 5.22913 23.5107 5.44439 23.5107 5.70993C23.5107 5.97546 23.2955 6.19073 23.0299 6.19073H9.92993C9.66439 6.19073 9.44913 5.97546 9.44913 5.70993Z" fill="#9B9B9B"/>
<path d="M16.4399 7.26C15.4699 6.29 15.4699 4.72 16.4399 3.75C17.4099 4.72 17.4099 6.29 16.4399 7.26Z" fill="#B4F6FC"/>
</svg>

<svg xmlns="http://www.w3.org/2000/svg" width="32" height="32" fill="none"><path fill="#FFF9BA" d="M10.15 10.88h2.63l-.67 4.6-.01-.01a2.462 2.462 0 0 1-2.56 2.24c-1.27-.06-2.3-1.07-2.37-2.33-.05-.82.3-1.56.88-2.04h.01c.005 0 .008-.003.01-.005.003-.003.005-.005.01-.005l.38-.31c.59-.48 1.09-1.07 1.47-1.74l.22-.4ZM22.72 10.88H20.1l.66 4.6.01-.01a2.462 2.462 0 0 0 2.56 2.24c1.27-.06 2.3-1.07 2.37-2.33.05-.82-.3-1.56-.88-2.04h-.01c-.005 0-.007-.003-.01-.005-.002-.003-.005-.005-.01-.005l-.38-.31a6.164 6.164 0 0 1-1.47-1.74l-.22-.4Z"/><path fill="#44911B" d="m26.85 29.98-8.686-5.31-4.184-8.39a10.1 10.1 0 0 1 2.47-.31c2.62 0 5.06 1.01 6.89 2.71v-.01c1.27 1.18 2.25 2.69 2.79 4.42.5 1.6.75 3.28.74 4.96l-.02 1.93ZM16.55 30H6v-1.98c0-1.66.26-3.31.76-4.89l.03-.08a9.912 9.912 0 0 1 1.06-2.3l5.949 3.526L16.55 30Z"/><path fill="#7D4533" d="m13.98 16.28 12.88 13.71V30H16.55l-8.7-9.25c.47-.76 1.04-1.44 1.68-2.04 1.25-1.17 2.77-2.01 4.45-2.43Z"/><path fill="#A56953" d="M16.44 21.26c3.629 0 6.57-1.813 6.57-4.05s-2.941-4.05-6.57-4.05c-3.628 0-6.57 1.813-6.57 4.05s2.942 4.05 6.57 4.05Z"/><path fill="#E4B29A" d="M16.835 20.192a.5.5 0 0 1-.782-.006l-.602-.771a12 12 0 0 1-1.738-3.058L13.3 15.29h6.27l-.278.784a11.999 11.999 0 0 1-1.988 3.54l-.468.578Z"/><path fill="#FFF9BA" d="M16.44 25.17a2.764 2.764 0 0 1 0-3.91 2.764 2.764 0 0 1 0 3.91Z"/><path fill="#E4B29A" d="M20.43 12.21c-.57-.57-.57-1.5 0-2.07.57-.57 3.49-2.56 4.06-1.99.57.57-1.42 3.49-1.99 4.06-.57.57-1.5.57-2.07 0ZM12.45 12.21c.57-.57.57-1.5 0-2.07-.57-.57-3.49-2.57-4.06-2-.57.57 1.42 3.49 1.99 4.06.57.58 1.5.58 2.07.01Z"/><path fill="#EEBFAA" d="M17.57 3.39H15.3c-2.55 0-4.47 2.13-4.17 4.77l.38 5.85a4.01 4.01 0 0 0 3.97 3.48h1.94c2.01 0 3.71-1.49 3.97-3.48l.36-5.85c.33-2.52-1.63-4.77-4.18-4.77Z"/><path fill="#D19479" d="m16.03 10.56-.53 1.73c-.11.35.15.71.52.71h.79c.37 0 .64-.36.53-.71l-.53-1.73a.41.41 0 0 0-.78 0Z"/><path fill="#990838" d="M16.42 13.98c-.55 0-1.06-.13-1.5-.36-.15-.08-.3.09-.21.23.36.56.99.93 1.71.93s1.35-.37 1.71-.93c.09-.14-.07-.31-.21-.23-.44.23-.95.36-1.5.36Z"/><path fill="#A56953" d="M12.719 8.713a.284.284 0 0 0 .335-.004c.448-.293.985-.42 1.517-.355a.283.283 0 1 0 .065-.562 2.782 2.782 0 0 0-1.925.467.282.282 0 0 0 .008.454ZM19.792 8.709a.283.283 0 0 0 .343-.45 2.812 2.812 0 0 0-1.924-.467.284.284 0 0 0-.046.554.28.28 0 0 0 .11.008 2.22 2.22 0 0 1 1.517.355Z"/><path fill="#fff" d="M12.55 10.53c.16-.63.72-1.09 1.4-1.09.7 0 1.29.5 1.42 1.16.02.15-.09.28-.24.28h-2.3c-.19 0-.33-.17-.28-.35ZM20.29 10.53c-.16-.63-.72-1.09-1.4-1.09-.7 0-1.28.5-1.42 1.16-.02.15.09.28.24.28h2.3c.19 0 .32-.17.28-.35Z"/><path fill="#7D4533" d="M13.24 10.64c0-.51.41-.92.92-.92s.93.41.92.92c0 .08-.01.16-.03.24h-1.78a.928.928 0 0 1-.03-.24ZM19.6 10.64c0-.51-.41-.92-.92-.92s-.92.41-.92.92c0 .08.01.16.03.24h1.78c.02-.07.03-.16.03-.24Z"/><path fill="#000" d="M14.16 10.11c.29 0 .53.24.53.53 0 .09-.02.17-.07.24h-.93a.475.475 0 0 1-.06-.24c0-.29.24-.53.53-.53ZM18.68 10.11c-.29 0-.53.24-.53.53 0 .09.02.17.07.24h.93c.04-.07.06-.15.06-.24 0-.29-.24-.53-.53-.53Z"/><path fill="#fff" d="M14.01 10.28a.16.16 0 1 1-.32 0 .16.16 0 0 1 .32 0ZM18.55 10.28a.16.16 0 1 1-.32 0 .16.16 0 0 1 .32 0Z"/><path fill="#FFF9BA" d="M22.63 8.06c.53-.76.6-1.79.11-2.65-.31-.54-.79-.92-1.34-1.1a2.66 2.66 0 0 1-1.43-1.12A2.487 2.487 0 0 0 17.86 2c-.34 0-.67.07-.97.2-.15.06-.3.1-.45.12-.16-.02-.31-.06-.45-.12a2.462 2.462 0 0 0-3.08.99c-.33.53-.84.92-1.44 1.12-.54.19-1.03.56-1.34 1.1-.49.86-.41 1.89.11 2.65.15.21.24.46.27.71.24.14.47.29.69.44h.01l-.05-.96c.01-.81.66-1.47 1.46-1.5h1.48c1.01 0 1.92-.59 2.34-1.5.42.91 1.33 1.5 2.34 1.5h1.48c.81.04 1.45.69 1.46 1.5l-.06.96h.01c.22-.15.45-.3.69-.44.03-.26.12-.5.27-.71Z"/><path fill="#9B9B9B" d="M9.45 5.71a.48.48 0 0 1 .48-.48h13.1a.48.48 0 1 1 0 .96H9.93a.48.48 0 0 1-.48-.48Z"/><path fill="#B4F6FC" d="M16.44 7.26a2.48 2.48 0 0 1 0-3.51c.97.97.97 2.54 0 3.51Z"/></svg>
